images/icons/log-out.svg

<svg width="23" height="25" viewBox="0 0 23 25" fill="none" xmlns="http://www.w3.org/2000/svg">
<path d="M18.4 15.625V12.5H10.7333V9.375H18.4V6.25L23 10.9375L18.4 15.625ZM16.8667 14.0625V20.3125H9.2V25L0 20.3125V0H16.8667V7.8125H15.3333V1.5625H3.06667L9.2 4.6875V18.75H15.3333V14.0625H16.8667Z" fill="white"/>
</svg>

<svg width="23" height="25" fill="none" xmlns="http://www.w3.org/2000/svg"><path d="M18.4 15.625V12.5h-7.667V9.375H18.4V6.25l4.6 4.688-4.6 4.687zm-1.533-1.563v6.25H9.2V25L0 20.312V0h16.867v7.813h-1.534v-6.25H3.067L9.2 4.688V18.75h6.133v-4.688h1.534z" fill="#fff"/></svg>
